app/dist/common/images/11-88-0-solutions-ag.svg

<svg fill="none" height="18" viewBox="0 0 18 18" width="18" xmlns="http://www.w3.org/2000/svg"><path d="m0 0h18v18h-18z" fill="#f0f3fa"/><g clip-rule="evenodd" fill="#007ec4" fill-rule="evenodd"><path d="m3 7h-1v.984h1v3.016h1v-4h-.00001z"/><path d="m5 7h-1v.984h1v3.016h1v-3.016-.984z"/><path d="m8.49999 7c.69038 0 1.25001.43668 1.25001.97533 0 .28475-.15638.54101-.40579.71932.39589.22718.65579.6097.65579 1.04329 0 .69696-.67157 1.26206-1.5 1.26206-.82841 0-1.5-.5651-1.5-1.26206 0-.43358.25991-.8161.6558-1.04329-.24941-.17831-.4058-.43457-.4058-.71932 0-.53865.55964-.97533 1.24999-.97533zm0 .49189c.27615 0 .5.22026.5.492 0 .27173-.22385.492-.5.492s-.5-.22027-.5-.492c0-.27174.22385-.492.5-.492zm.00001 1.50811c.27615 0 .5.22385.5.5s-.22385.5-.5.5-.5-.22385-.5-.5.22385-.5.5-.5z"/><path d="m11.5 7c.6904 0 1.25.43668 1.25.97533 0 .28475-.1564.54101-.4058.71932.3959.22718.6558.6097.6558 1.04329 0 .69696-.6716 1.26206-1.5 1.26206s-1.5-.5651-1.5-1.26206c0-.43358.2599-.8161.6558-1.04329-.2494-.17831-.4058-.43457-.4058-.71932 0-.53865.5596-.97533 1.25-.97533zm0 .49189c.2761 0 .5.22026.5.492 0 .27173-.2239.492-.5.492-.2762 0-.5-.22027-.5-.492 0-.27174.2238-.492.5-.492zm0 1.50811c.2762 0 .5.22385.5.5s-.2238.5-.5.5-.5-.22385-.5-.5.2238-.5.5-.5z"/><path d="m16 8.968c0-1.0869-.6716-1.968-1.5-1.968s-1.5.8811-1.5 1.968.6716 1.968 1.5 1.968 1.5-.8811 1.5-1.968zm-.9059-.00005c0-.62742-.266-1.13604-.5941-1.13604-.3282 0-.5941.50862-.5941 1.13604 0 .62741.2659 1.13605.5941 1.13605.3281 0 .5941-.50864.5941-1.13605z"/></g></svg>

<!-- by TradingView --><svg width="18" height="18" viewBox="0 0 18 18" fill="none" xmlns="http://www.w3.org/2000/svg">
<rect width="18" height="18" fill="#F0F3FA"/>
<path fill-rule="evenodd" clip-rule="evenodd" d="M3 7H2V7.984H3V11H4V7H3.99999H3Z" fill="#007EC4"/>
<path fill-rule="evenodd" clip-rule="evenodd" d="M5 7H4V7.984H5V11H6L6 7.984V7H5Z" fill="#007EC4"/>
<path fill-rule="evenodd" clip-rule="evenodd" d="M8.49999 7C9.19037 7 9.75 7.43668 9.75 7.97533C9.75 8.26008 9.59362 8.51634 9.34421 8.69465C9.7401 8.92183 10 9.30435 10 9.73794C10 10.4349 9.32843 11 8.5 11C7.67159 11 7 10.4349 7 9.73794C7 9.30436 7.25991 8.92184 7.6558 8.69465C7.40639 8.51634 7.25 8.26008 7.25 7.97533C7.25 7.43668 7.80964 7 8.49999 7ZM8.49999 7.49189C8.77614 7.49189 8.99999 7.71215 8.99999 7.98389C8.99999 8.25562 8.77614 8.47589 8.49999 8.47589C8.22384 8.47589 7.99999 8.25562 7.99999 7.98389C7.99999 7.71215 8.22384 7.49189 8.49999 7.49189ZM8.5 9C8.77615 9 9 9.22385 9 9.5C9 9.77615 8.77615 10 8.5 10C8.22385 10 8 9.77615 8 9.5C8 9.22385 8.22385 9 8.5 9Z" fill="#007EC4"/>
<path fill-rule="evenodd" clip-rule="evenodd" d="M11.5 7C12.1904 7 12.75 7.43668 12.75 7.97533C12.75 8.26008 12.5936 8.51634 12.3442 8.69465C12.7401 8.92183 13 9.30435 13 9.73794C13 10.4349 12.3284 11 11.5 11C10.6716 11 10 10.4349 10 9.73794C10 9.30436 10.2599 8.92184 10.6558 8.69465C10.4064 8.51634 10.25 8.26008 10.25 7.97533C10.25 7.43668 10.8096 7 11.5 7ZM11.5 7.49189C11.7761 7.49189 12 7.71215 12 7.98389C12 8.25562 11.7761 8.47589 11.5 8.47589C11.2238 8.47589 11 8.25562 11 7.98389C11 7.71215 11.2238 7.49189 11.5 7.49189ZM11.5 9C11.7762 9 12 9.22385 12 9.5C12 9.77615 11.7762 10 11.5 10C11.2238 10 11 9.77615 11 9.5C11 9.22385 11.2238 9 11.5 9Z" fill="#007EC4"/>
<path fill-rule="evenodd" clip-rule="evenodd" d="M16 8.968C16 7.8811 15.3284 7 14.5 7C13.6716 7 13 7.8811 13 8.968C13 10.0549 13.6716 10.936 14.5 10.936C15.3284 10.936 16 10.0549 16 8.968ZM15.0941 8.96795C15.0941 8.34053 14.8281 7.83191 14.5 7.83191C14.1718 7.83191 13.9059 8.34053 13.9059 8.96795C13.9059 9.59536 14.1718 10.104 14.5 10.104C14.8281 10.104 15.0941 9.59536 15.0941 8.96795Z" fill="#007EC4"/>
</svg>
